X: 305656
M: 2/4
L: 1/16
K: G
dedB AGEG | D<DE<E F<FG<G | BABe dBAG | B2A2A2 Bc |\
decB AGEG | DDEE FFGG | BABe dBAG | B2G2"^D.C."G2 |]


